src/components/SVGLibraries/AppIconLibrary/icon-files/dark-theme/DownloadDirector.svg

<svg xmlns="http://www.w3.org/2000/svg" viewBox="0 0 32 32"><defs><linearGradient id="a" x1="2780.176" y1="1622" x2="2792.412" y2="1622" gradientTransform="matrix(1.063 0 0 -1 -2940.937 1627)" gradientUnits="userSpaceOnUse"><stop offset=".001" stop-opacity="0"/><stop offset=".7"/></linearGradient><linearGradient id="c" x1="-2232.353" y1="32" x2="-2262.471" gradientTransform="matrix(1.063 0 0 -1 2403.875 32)" gradientUnits="userSpaceOnUse"><stop offset=".1" stop-color="#3ddbd9"/><stop offset=".9" stop-color="#4589ff"/></linearGradient><mask id="b" x="0" y="0" width="32" height="32" maskUnits="userSpaceOnUse"><path d="M4 4h24a2 2 0 012 2v16a2 2 0 01-2 2h-8v4h4v2H8v-2h4v-4H4a2 2 0 01-2-2V6a2 2 0 012-2zm10 24h4v-4h-4zM4 22h24V6H4z" fill="#fff"/><path transform="rotate(-180 19.5 5)" fill="url(#a)" d="M13 3h13v4H13z" data-name="Gradients (black)"/></mask></defs><g data-name="Layer 2"><g data-name="Dark theme icons"><g mask="url(#b)"><path transform="rotate(180 16 16)" fill="url(#c)" d="M0 0h32v32H0z"/></g><path fill="#f4f4f4" d="M17 14.17V2h-2v12.17l-2.59-2.58L11 13l5 5 5-5-1.41-1.41L17 14.17z"/></g></g></svg>

<svg id="Build_icon_here" data-name="Build icon here" xmlns="http://www.w3.org/2000/svg" xmlns:xlink="http://www.w3.org/1999/xlink" viewBox="0 0 32 32">
  <defs>
    <linearGradient id="linear-gradient" x1="13" y1="5" x2="26" y2="5" gradientUnits="userSpaceOnUse">
      <stop offset="0.3"/>
      <stop offset="1" stop-opacity="0"/>
    </linearGradient>
    <mask id="mask" x="0" y="0" width="32" height="32" maskUnits="userSpaceOnUse">
      <g>
        <path d="M4,4H28a2,2,0,0,1,2,2V22a2,2,0,0,1-2,2H20v4h4v2H8V28h4V24H4a2,2,0,0,1-2-2V6A2,2,0,0,1,4,4ZM14,28h4V24H14ZM4,22H28V6H4Z" style="fill: #fff"/>
        <rect x="13" y="3" width="13" height="4" style="fill: url(#linear-gradient)"/>
      </g>
    </mask>
    <linearGradient id="linear-gradient-2" x1="-3243.706" y1="32" x2="-3273.824" gradientTransform="matrix(1.063, 0, 0, -1, 3478.438, 32)" gradientUnits="userSpaceOnUse">
      <stop offset="0.1" stop-color="#3ddbd9"/>
      <stop offset="0.9" stop-color="#4589ff"/>
    </linearGradient>
  </defs>
  <g>
    <g style="mask: url(#mask)">
      <rect width="32" height="32" transform="translate(32 32) rotate(180)" style="fill: url(#linear-gradient-2)"/>
    </g>
    <polygon points="17 14.17 17 2 15 2 15 14.17 12.41 11.59 11 13 16 18 21 13 19.59 11.59 17 14.17" style="fill: #f4f4f4"/>
  </g>
</svg>
